Newaita-dark/apps/48/com.github.danrabbit.nimbus.svg

<svg height="48" viewBox="0 0 48 48" width="48" xmlns="http://www.w3.org/2000/svg" xmlns:xlink="http://www.w3.org/1999/xlink"><linearGradient id="a"><stop offset="0" stop-opacity=".313726"/><stop offset=".222222" stop-opacity=".27451"/><stop offset="1" stop-opacity="0"/></linearGradient><radialGradient id="b" cx="450.908936" cy="189.579361" gradientTransform="matrix(.00000026 -.117199 -.210958 -.00000015 66.784728 95.392994)" gradientUnits="userSpaceOnUse" r="21.166656" xlink:href="#a"/><radialGradient id="c" cx="450.908936" cy="189.579361" gradientTransform="matrix(-.00000026 .117199 .210958 .00000015 -19.155178 -11.291223)" gradientUnits="userSpaceOnUse" r="21.166656" xlink:href="#a"/><radialGradient id="d" cx="450.908936" cy="189.579361" gradientTransform="matrix(-.00000026 -.117199 .210958 -.00000015 -19.155178 95.392994)" gradientUnits="userSpaceOnUse" r="21.166656" xlink:href="#a"/><radialGradient id="e" cx="450.908936" cy="189.579361" gradientTransform="matrix(.00000026 .117199 -.210958 .00000015 66.784725 -11.291224)" gradientUnits="userSpaceOnUse" r="21.166656" xlink:href="#a"/><linearGradient id="f" gradientTransform="matrix(.0200401 0 0 .093759 18.698079 20.158175)" gradientUnits="userSpaceOnUse" x1="255.323059" x2="255.323044" y1="233.5" y2="254.666656"><stop offset="0" stop-opacity=".27451"/><stop offset="1" stop-opacity="0"/></linearGradient><linearGradient id="g" gradientUnits="userSpaceOnUse" x1="23.814786" x2="23.814786" y1="4.34415649995" y2="42.0509015"><stop offset="0" stop-color="#64b5f6"/><stop offset="1" stop-color="#42a5f5"/></linearGradient><linearGradient id="h" gradientUnits="userSpaceOnUse" x1="23.814816" x2="23.814816" y1="42.05096580616" y2="4.34417306195"><stop offset="0" stop-color="#bdbdbd"/><stop offset="1" stop-color="#e0e0e0"/></linearGradient><path d="m27.289062 42.050781h3.96875v-1.984375h-3.96875zm0 0" fill="url(#b)"/><path d="m20.339844 42.050781h-3.96875v1.984375h3.96875zm0 0" fill="url(#c)"/><path d="m20.339844 42.050781h-3.96875v-1.984375h3.96875zm0 0" fill="url(#d)"/><path d="m27.289062 42.050781h3.96875v1.984375h-3.96875zm0 0" fill="url(#e)"/><path d="m20.339844 41.554688h6.949218v2.480468h-6.949218zm0 0" fill="url(#f)"/><path d="m23.816406 4.34375c10.410156 0 18.851563 8.441406 18.851563 18.855469 0 10.410156-8.441407 18.851562-18.851563 18.851562-10.414062 0-18.855468-8.441406-18.855468-18.851562 0-10.414063 8.441406-18.855469 18.855468-18.855469zm0 0" fill="url(#g)"/><path d="m23.816406 42.050781c-10.445312 0-18.855468-8.410156-18.855468-18.851562 0-.0625 0-.125 0-.1875.101562 10.359375 8.472656 18.667969 18.855468 18.667969 10.382813 0 18.753906-8.308594 18.851563-18.667969v.1875c0 10.441406-8.410157 18.851562-18.851563 18.851562zm0 0" fill-opacity=".196078"/><path d="m23.816406 4.34375c-10.445312 0-18.855468 8.410156-18.855468 18.855469v.183593c.101562-10.359374 8.472656-18.667968 18.855468-18.667968 10.382813 0 18.753906 8.308594 18.851563 18.667968 0-.0625 0-.125 0-.183593 0-10.445313-8.410157-18.855469-18.851563-18.855469zm0 0" fill="#fff" fill-opacity=".392157"/><path d="m23.816406 4.203125c-10.523437 0-18.996094 8.472656-18.996094 18.996094 0 10.519531 8.472657 18.992187 18.996094 18.992187 10.519532 0 18.992188-8.472656 18.992188-18.992187 0-10.523438-8.472656-18.996094-18.992188-18.996094zm0 .28125c10.367188 0 18.710938 8.34375 18.710938 18.714844 0 10.367187-8.34375 18.710937-18.710938 18.710937-10.371094 0-18.714844-8.34375-18.714844-18.710937 0-10.371094 8.34375-18.714844 18.714844-18.714844zm0 0" fill="#212121"/><path d="m26.296875 13.273438c-2.648437 0-4.839844 1.867187-5.347656 4.355468-.480469-.246094-1.023438-.386718-1.601563-.386718-1.921875 0-3.472656 1.550781-3.472656 3.476562 0 .246094.027344.488281.078125.722656-1.777344.585938-3.054687 2.257813-3.054687 4.238282 0 2.472656 1.992187 4.464843 4.464843 4.464843h13.398438v-.027343c2.238281-.246094 3.96875-2.132813 3.96875-4.4375 0-2.183594-1.550781-3.988282-3.613281-4.386719.40625-.761719.636718-1.632813.636718-2.5625 0-3.023438-2.433594-5.457031-5.457031-5.457031zm0 0" fill="url(#h)"/><path d="m26.296875 13.273438c-2.648437 0-4.839844 1.867187-5.347656 4.355468-.480469-.246094-1.023438-.386718-1.601563-.386718-1.921875 0-3.472656 1.550781-3.472656 3.476562 0 .101562.007812.203125.015625.304688.15625-1.777344 1.640625-3.160157 3.457031-3.160157.578125 0 1.121094.140625 1.601563.386719.507812-2.492188 2.699219-4.355469 5.347656-4.355469 2.917969 0 5.285156 2.269531 5.445313 5.144531.007812-.101562.011718-.203124.011718-.308593 0-3.023438-2.433594-5.457031-5.457031-5.457031zm5.199219 8.109374c-.097656.316407-.226563.617188-.378906.902344.089843.019532.175781.039063.261718.058594.042969-.109375.082032-.222656.117188-.339844 1.777344.507813 3.09375 2.074219 3.222656 3.980469.007812-.101563.011719-.203125.011719-.304687 0-2.046876-1.363281-3.761719-3.234375-4.296876zm-15.617188.082032c-1.738281.609375-2.980468 2.261718-2.980468 4.214844 0 .101562.003906.203124.011718.304687.125-1.816406 1.328125-3.328125 2.976563-3.902344-.007813.082031-.011719.164063-.011719.246094 0 .042969.003906.085937.003906.128906.023438-.007812.046875-.015625.074219-.023437-.050781-.234375-.078125-.476563-.078125-.722656 0-.0625.003906-.125.007812-.1875 0-.019532-.003906-.039063-.003906-.058594zm0 0" fill="#fff"/><path d="m31.730469 19.242188c-.070313.738281-.28125 1.429687-.613281 2.050781.132812.027343.261718.058593.386718.09375.164063-.515625.25-1.066407.25-1.636719 0-.167969-.007812-.339844-.023437-.507812zm-15.816407 1.984374c-.011718.078126-.019531.15625-.027343.234376.023437-.007813.042969-.015626.066406-.019532-.015625-.070312-.027344-.144531-.039063-.214844zm-2.984374 4.960938c-.019532.167969-.03125.335938-.03125.511719 0 2.472656 1.992187 4.464843 4.464843 4.464843h13.398438v-.027343c2.238281-.246094 3.96875-2.132813 3.96875-4.4375 0-.175781-.011719-.34375-.027344-.511719-.234375 2.070312-1.871094 3.703125-3.941406 3.929688v.027343h-13.398438c-2.300781 0-4.183593-1.726562-4.433593-3.957031zm0 0" fill-opacity=".235294"/><path d="m1060.056306 535.067042c-106.761464 0-195.09949 75.268407-215.569977 175.573794-19.36823-9.920313-41.255905-15.589063-64.560767-15.589063-77.472921 0-139.986639 62.513718-139.986639 140.144104 0 9.920313 1.102257 19.683161 3.149305 29.131078-71.646705 23.619793-123.137853 91.014935-123.137853 170.849836 0 99.675526 80.307295 179.982821 179.982822 179.982821h540.105931v-1.102257c90.227609-9.920313 159.98473-85.976046 159.98473-178.880564 0-88.023095-62.513718-160.772058-145.655389-176.833517 16.376389-30.70573 25.666841-65.820489 25.666841-103.297227 0-121.878132-98.100873-219.979005-219.979004-219.979005zm0 0" fill="none" stroke="#212121" stroke-linecap="round" stroke-linejoin="round" stroke-width="11.338583" transform="scale(.0248071)"/></svg>

<?xml version="1.0" encoding="UTF-8"?>
<svg xmlns="http://www.w3.org/2000/svg" xmlns:xlink="http://www.w3.org/1999/xlink" width="48px" height="48px" viewBox="0 0 48 48" version="1.1">
<defs>
<radialGradient id="radial0" gradientUnits="userSpaceOnUse" cx="450.908936" cy="189.579361" fx="450.908936" fy="189.579361" r="21.166656" gradientTransform="matrix(0.000000261256,-0.117199,-0.210958,-0.000000152308,66.784728,95.392994)">
<stop offset="0" style="stop-color:rgb(0%,0%,0%);stop-opacity:0.313726;"/>
<stop offset="0.222222" style="stop-color:rgb(0%,0%,0%);stop-opacity:0.27451;"/>
<stop offset="1" style="stop-color:rgb(0%,0%,0%);stop-opacity:0;"/>
</radialGradient>
<radialGradient id="radial1" gradientUnits="userSpaceOnUse" cx="450.908936" cy="189.579361" fx="450.908936" fy="189.579361" r="21.166656" gradientTransform="matrix(-0.000000261256,0.117199,0.210958,0.000000152308,-19.155178,-11.291223)">
<stop offset="0" style="stop-color:rgb(0%,0%,0%);stop-opacity:0.313726;"/>
<stop offset="0.222222" style="stop-color:rgb(0%,0%,0%);stop-opacity:0.27451;"/>
<stop offset="1" style="stop-color:rgb(0%,0%,0%);stop-opacity:0;"/>
</radialGradient>
<radialGradient id="radial2" gradientUnits="userSpaceOnUse" cx="450.908936" cy="189.579361" fx="450.908936" fy="189.579361" r="21.166656" gradientTransform="matrix(-0.000000261256,-0.117199,0.210958,-0.000000152308,-19.155178,95.392994)">
<stop offset="0" style="stop-color:rgb(0%,0%,0%);stop-opacity:0.313726;"/>
<stop offset="0.222222" style="stop-color:rgb(0%,0%,0%);stop-opacity:0.27451;"/>
<stop offset="1" style="stop-color:rgb(0%,0%,0%);stop-opacity:0;"/>
</radialGradient>
<radialGradient id="radial3" gradientUnits="userSpaceOnUse" cx="450.908936" cy="189.579361" fx="450.908936" fy="189.579361" r="21.166656" gradientTransform="matrix(0.000000261256,0.117199,-0.210958,0.000000152308,66.784725,-11.291224)">
<stop offset="0" style="stop-color:rgb(0%,0%,0%);stop-opacity:0.313726;"/>
<stop offset="0.222222" style="stop-color:rgb(0%,0%,0%);stop-opacity:0.27451;"/>
<stop offset="1" style="stop-color:rgb(0%,0%,0%);stop-opacity:0;"/>
</radialGradient>
<linearGradient id="linear0" gradientUnits="userSpaceOnUse" x1="255.323059" y1="233.5" x2="255.323044" y2="254.666656" gradientTransform="matrix(0.0200401,0,0,0.093759,18.698079,20.158175)">
<stop offset="0" style="stop-color:rgb(0%,0%,0%);stop-opacity:0.27451;"/>
<stop offset="1" style="stop-color:rgb(0%,0%,0%);stop-opacity:0;"/>
</linearGradient>
<linearGradient id="linear1" gradientUnits="userSpaceOnUse" x1="254" y1="-168.666672" x2="254" y2="233.5" gradientTransform="matrix(0.093759,0,0,0.093759,0,20.158175)">
<stop offset="0" style="stop-color:rgb(39.215687%,70.980394%,96.470588%);stop-opacity:1;"/>
<stop offset="1" style="stop-color:rgb(25.882354%,64.705884%,96.078432%);stop-opacity:1;"/>
</linearGradient>
<linearGradient id="linear2" gradientUnits="userSpaceOnUse" x1="960" y1="1695.118164" x2="960" y2="175.118134" gradientTransform="matrix(0.0248071,0,0,0.0248071,0,0.00000000000000282)">
<stop offset="0" style="stop-color:rgb(74.117649%,74.117649%,74.117649%);stop-opacity:1;"/>
<stop offset="1" style="stop-color:rgb(87.843138%,87.843138%,87.843138%);stop-opacity:1;"/>
</linearGradient>
</defs>
<g id="surface1">
<path style=" stroke:none;fill-rule:nonzero;fill:url(#radial0);" d="M 27.289062 42.050781 L 31.257812 42.050781 L 31.257812 40.066406 L 27.289062 40.066406 Z M 27.289062 42.050781 "/>
<path style=" stroke:none;fill-rule:nonzero;fill:url(#radial1);" d="M 20.339844 42.050781 L 16.371094 42.050781 L 16.371094 44.035156 L 20.339844 44.035156 Z M 20.339844 42.050781 "/>
<path style=" stroke:none;fill-rule:nonzero;fill:url(#radial2);" d="M 20.339844 42.050781 L 16.371094 42.050781 L 16.371094 40.066406 L 20.339844 40.066406 Z M 20.339844 42.050781 "/>
<path style=" stroke:none;fill-rule:nonzero;fill:url(#radial3);" d="M 27.289062 42.050781 L 31.257812 42.050781 L 31.257812 44.035156 L 27.289062 44.035156 Z M 27.289062 42.050781 "/>
<path style=" stroke:none;fill-rule:nonzero;fill:url(#linear0);" d="M 20.339844 41.554688 L 27.289062 41.554688 L 27.289062 44.035156 L 20.339844 44.035156 Z M 20.339844 41.554688 "/>
<path style=" stroke:none;fill-rule:nonzero;fill:url(#linear1);" d="M 23.816406 4.34375 C 34.226562 4.34375 42.667969 12.785156 42.667969 23.199219 C 42.667969 33.609375 34.226562 42.050781 23.816406 42.050781 C 13.402344 42.050781 4.960938 33.609375 4.960938 23.199219 C 4.960938 12.785156 13.402344 4.34375 23.816406 4.34375 Z M 23.816406 4.34375 "/>
<path style=" stroke:none;fill-rule:nonzero;fill:rgb(0%,0%,0%);fill-opacity:0.196078;" d="M 23.816406 42.050781 C 13.371094 42.050781 4.960938 33.640625 4.960938 23.199219 C 4.960938 23.136719 4.960938 23.074219 4.960938 23.011719 C 5.0625 33.371094 13.433594 41.679688 23.816406 41.679688 C 34.199219 41.679688 42.570312 33.371094 42.667969 23.011719 C 42.667969 23.074219 42.667969 23.136719 42.667969 23.199219 C 42.667969 33.640625 34.257812 42.050781 23.816406 42.050781 Z M 23.816406 42.050781 "/>
<path style=" stroke:none;fill-rule:nonzero;fill:rgb(100%,100%,100%);fill-opacity:0.392157;" d="M 23.816406 4.34375 C 13.371094 4.34375 4.960938 12.753906 4.960938 23.199219 C 4.960938 23.257812 4.960938 23.320312 4.960938 23.382812 C 5.0625 13.023438 13.433594 4.714844 23.816406 4.714844 C 34.199219 4.714844 42.570312 13.023438 42.667969 23.382812 C 42.667969 23.320312 42.667969 23.257812 42.667969 23.199219 C 42.667969 12.753906 34.257812 4.34375 23.816406 4.34375 Z M 23.816406 4.34375 "/>
<path style=" stroke:none;fill-rule:nonzero;fill:rgb(12.941177%,12.941177%,12.941177%);fill-opacity:1;" d="M 23.816406 4.203125 C 13.292969 4.203125 4.820312 12.675781 4.820312 23.199219 C 4.820312 33.71875 13.292969 42.191406 23.816406 42.191406 C 34.335938 42.191406 42.808594 33.71875 42.808594 23.199219 C 42.808594 12.675781 34.335938 4.203125 23.816406 4.203125 Z M 23.816406 4.484375 C 34.183594 4.484375 42.527344 12.828125 42.527344 23.199219 C 42.527344 33.566406 34.183594 41.910156 23.816406 41.910156 C 13.445312 41.910156 5.101562 33.566406 5.101562 23.199219 C 5.101562 12.828125 13.445312 4.484375 23.816406 4.484375 Z M 23.816406 4.484375 "/>
<path style=" stroke:none;fill-rule:nonzero;fill:url(#linear2);" d="M 26.296875 13.273438 C 23.648438 13.273438 21.457031 15.140625 20.949219 17.628906 C 20.46875 17.382812 19.925781 17.242188 19.347656 17.242188 C 17.425781 17.242188 15.875 18.792969 15.875 20.71875 C 15.875 20.964844 15.902344 21.207031 15.953125 21.441406 C 14.175781 22.027344 12.898438 23.699219 12.898438 25.679688 C 12.898438 28.152344 14.890625 30.144531 17.363281 30.144531 L 30.761719 30.144531 L 30.761719 30.117188 C 33 29.871094 34.730469 27.984375 34.730469 25.679688 C 34.730469 23.496094 33.179688 21.691406 31.117188 21.292969 C 31.523438 20.53125 31.753906 19.660156 31.753906 18.730469 C 31.753906 15.707031 29.320312 13.273438 26.296875 13.273438 Z M 26.296875 13.273438 "/>
<path style=" stroke:none;fill-rule:nonzero;fill:rgb(100%,100%,100%);fill-opacity:1;" d="M 26.296875 13.273438 C 23.648438 13.273438 21.457031 15.140625 20.949219 17.628906 C 20.46875 17.382812 19.925781 17.242188 19.347656 17.242188 C 17.425781 17.242188 15.875 18.792969 15.875 20.71875 C 15.875 20.820312 15.882812 20.921875 15.890625 21.023438 C 16.046875 19.246094 17.53125 17.863281 19.347656 17.863281 C 19.925781 17.863281 20.46875 18.003906 20.949219 18.25 C 21.457031 15.757812 23.648438 13.894531 26.296875 13.894531 C 29.214844 13.894531 31.582031 16.164062 31.742188 19.039062 C 31.75 18.9375 31.753906 18.835938 31.753906 18.730469 C 31.753906 15.707031 29.320312 13.273438 26.296875 13.273438 Z M 31.496094 21.382812 C 31.398438 21.699219 31.269531 22 31.117188 22.285156 C 31.207031 22.304688 31.292969 22.324219 31.378906 22.34375 C 31.421875 22.234375 31.460938 22.121094 31.496094 22.003906 C 33.273438 22.511719 34.589844 24.078125 34.71875 25.984375 C 34.726562 25.882812 34.730469 25.78125 34.730469 25.679688 C 34.730469 23.632812 33.367188 21.917969 31.496094 21.382812 Z M 15.878906 21.464844 C 14.140625 22.074219 12.898438 23.726562 12.898438 25.679688 C 12.898438 25.78125 12.902344 25.882812 12.910156 25.984375 C 13.035156 24.167969 14.238281 22.65625 15.886719 22.082031 C 15.878906 22.164062 15.875 22.246094 15.875 22.328125 C 15.875 22.371094 15.878906 22.414062 15.878906 22.457031 C 15.902344 22.449219 15.925781 22.441406 15.953125 22.433594 C 15.902344 22.199219 15.875 21.957031 15.875 21.710938 C 15.875 21.648438 15.878906 21.585938 15.882812 21.523438 C 15.882812 21.503906 15.878906 21.484375 15.878906 21.464844 Z M 15.878906 21.464844 "/>
<path style=" stroke:none;fill-rule:nonzero;fill:rgb(0%,0%,0%);fill-opacity:0.235294;" d="M 31.730469 19.242188 C 31.660156 19.980469 31.449219 20.671875 31.117188 21.292969 C 31.25 21.320312 31.378906 21.351562 31.503906 21.386719 C 31.667969 20.871094 31.753906 20.320312 31.753906 19.75 C 31.753906 19.582031 31.746094 19.410156 31.730469 19.242188 Z M 15.914062 21.226562 C 15.902344 21.304688 15.894531 21.382812 15.886719 21.460938 C 15.910156 21.453125 15.929688 21.445312 15.953125 21.441406 C 15.9375 21.371094 15.925781 21.296875 15.914062 21.226562 Z M 12.929688 26.1875 C 12.910156 26.355469 12.898438 26.523438 12.898438 26.699219 C 12.898438 29.171875 14.890625 31.164062 17.363281 31.164062 L 30.761719 31.164062 L 30.761719 31.136719 C 33 30.890625 34.730469 29.003906 34.730469 26.699219 C 34.730469 26.523438 34.71875 26.355469 34.703125 26.1875 C 34.46875 28.257812 32.832031 29.890625 30.761719 30.117188 L 30.761719 30.144531 L 17.363281 30.144531 C 15.0625 30.144531 13.179688 28.417969 12.929688 26.1875 Z M 12.929688 26.1875 "/>
<path style="fill:none;stroke-width:11.338583;stroke-linecap:round;stroke-linejoin:round;stroke:rgb(12.941177%,12.941177%,12.941177%);stroke-opacity:1;stroke-miterlimit:4;" d="M 1060.056306 535.067042 C 953.294842 535.067042 864.956816 610.335449 844.486329 710.640836 C 825.118099 700.720523 803.230424 695.051773 779.925562 695.051773 C 702.452641 695.051773 639.938923 757.565491 639.938923 835.195877 C 639.938923 845.11619 641.04118 854.879038 643.088228 864.326955 C 571.441523 887.946748 519.950375 955.34189 519.950375 1035.176791 C 519.950375 1134.852317 600.25767 1215.159612 699.933197 1215.159612 L 1240.039128 1215.159612 L 1240.039128 1214.057355 C 1330.266737 1204.137042 1400.023858 1128.081309 1400.023858 1035.176791 C 1400.023858 947.153696 1337.51014 874.404733 1254.368469 858.343274 C 1270.744858 827.637544 1280.03531 792.522785 1280.03531 755.046047 C 1280.03531 633.167915 1181.934437 535.067042 1060.056306 535.067042 Z M 1060.056306 535.067042 " transform="matrix(0.0248071,0,0,0.0248071,0,0)"/>
</g>
</svg>
